X: 1147
T: İnce Kirpiklerinin...
C: Râkım Elkutlu
O: Turkey
F: http://compmusic.upf.edu/node/140
N: saba--sarki--agiraksak--ince_kirpiklerinin--rakim_elkutlu
N: makam= saba
N: form= sarki
N: usul= agiraksak = 9/4
M: 9/4
L: 1/16
K: C _2/4B _3/4d  
Q: 1/4=78
%%MIDI tuningsystem comma53
z8-z2G4AB c8 d3c B4 c2d2  | d2c4cB B4 B2c2 c3B cBBA A6G2 c2BA  | 
w:  İn ce  *  kir pik  |  *  *  *  *  *  le ri nin  *  *  *  *  *  sî  | 
A12 G2G2 c8 efed c4 g2_7/8a2  | (3g2f2g2 (3f2e2f2 e3d edcB c8 c2d2 c2B2 A2B2  | 
w:  *  ne de  bin  yâ  |  *  *  *  *  *  *  *  *  re *  si  *  var   SAZ  | 
c3f efge f4 e2g2 ffe=d c_BAG F2f4e2 _3/4d2ef  | 
w:  *  *  *  *  *  *  *  Yal *  nız  *  *  *  *  *  *  *  *  bir   | 
edcB c2d2 c4 g2_7/8a2 g2f2 e2d2 d3c c3B A2B2  | \
w:  *  *  *  *  *  *  *  de li  ol *  *  *  mak   | 
c2d4d2 z4 B2c2 c3B A4 B3A G4 c2d2  | 
w:  *  *  *  gi bi  son  *  *  çâ  | 
c2BA B2d2 c3B cBBA A8 c2d2 c2B2 A2B2  | \
w:  *  *  *  *  *  *  *  re *  si  *  var   SAZ  | 
c3f efge f4 e2g2 ffe=d c_BAG F2f4e2 _3/4d2ef  | 
w:  *  *  *  *  *  *  *  Yal *  nız  *  *  *  *  *  *  *  *  bir   | 
edcB c2d2 c4 g2_7/8a2 g2f2 e2d2 d3c c3B A2B2  | \
w:  *  *  *  *  *  *  *  de li  ol *  *  *  mak   | 
c2d4d2 z4 B2c2 c3B A4 B3A G4 c2d2  | 
w:  *  *  *  gi bi  son  *  *  çâ  | 
c2BA B2d2 c3B cBBA A8 a2_b2 a2g2 f2g2  | \
w:  *  *  *  *  *  *  *  re *  si  *  var   SAZ  | 
a8 z2g4a2 a8 a3g f3e =d3^c  | 
w:  *  Çün kü  genç lik  | 
_7/8B3A G2^F2 G4 e2f2 e2f2 g2e2 f6c2 =d2e2  | \
w:  *  *  *  *  *  te  ö lüm  *  *  *  zor  SAZ  | 
f4 gfef g4 e2f2 g8 g2_7/8ag f4 c'4  | 
w:  *  *  *  *  *  *  ge li yor    | 
c'_1/4b_7/8ag f2ed c4 edcB c8 c2d2 c2B2 A2B2  | \
w:  *  *  *  *  *  *  *  *  ge *  li *  yor   SAZ  | 
c3f efge f4 e2g2 ffe=d c_BAG F2f4e2 _3/4d2ef  | 
w:  *  *  *  *  *  *  *  Yal *  nız  *  *  *  *  *  *  *  *  bir   | 
edcB c2d2 c4 g2_7/8a2 g2f2 e2d2 d3c c3B A2B2  | \
w:  *  *  *  *  *  *  *  de li  ol *  *  *  mak   | 
c2d4d2 z4 B2c2 c3B A4 B3A G4 c2d2  | 
w:  *  *  *  gi bi  son  *  *  çâ  | 
c2BA B2d2 c3B cBBA A8 c2d2 c2B2 A2B2  | \
w:  *  *  *  *  *  *  *  re *  si  *  var   SAZ  | 
c3f efge f4 e2g2 ffe=d c_BAG F2f4e2 _3/4d2ef  | 
w:  *  *  *  *  *  *  *  Yal *  nız  *  *  *  *  *  *  *  *  bir   | 
edcB c2d2 c4 g2_7/8a2 g2f2 e2d2 d3c c3B A2B2  | \
w:  *  *  *  *  *  *  *  de li  ol *  *  *  mak   | 
c2d4d2 z4 B2c2 c3B A4 B3A G4 c2d2  | 
w:  *  *  *  gi bi  son  *  *  çâ  | 
c2BA B2d2 c3B cBBA A8 z12  | |


